X:3629
T:Les garçons de la montagne
O:england
C:MCTB 2/44
M:3/8
L:1/16
K:C
g3ag2|f2def2|d2c2d2|e2d4|\
g3ag2|f2def2|d2c2B2|c6:|
|:G2c2d2|e2def2|d2c2d2|e2d4|\
G2c2d2|e2def2|d2c2B2|c6:|


